X:1
T:Enquire, ye pilgrims, for the way
T:Enquire, ye pilgrims, for the way - Mount Zion (Thomas Clark)
C:Thomas Clark
Z:p49, A Fifth Set of
Z:Psalm & Hymn Tunes,
Z:London: [c1809]
%%score [ 1 2 3 4 ]
L:1/8
M:2/2
K:D
V:1 treble nm="Air" snm="S."
V:2 treble nm="[Alto]" snm="A."
V:3 treble-8 transpose=-12 nm="Tenor" snm="T."
V:4 bass nm="[Bass]" snm="B."
V:1
 A2 | D4 d4 | (c2 B2) (A2 B2) | A4 G4 | F4 z2 A2 | B3 B B2 B2 | A4 z2 A2 | d6 d2 | c4 B4 | %9
w: Come,|let us|to _ his _|tem- ple|haste, And|seek his fa- vour|there, and|seek his|fa- vour|
w: En-|quire, ye|pil- * grims, _|for the|way That|leads to Zi- on’s|hill, that|leads to|Zi- on’s|
w: In-|vite the|stran- * gers _|all a-|round Your|pi- ous march to|join, your|pi- ous|march to|
 !fermata!A6 A2 | B2 B2 G2 B2 | A2 A2 F4 | G2 GA B2 c2 | d4 z4 | A2 AB c2 d2 | e4 z2 A2 | %16
w: there, Be-|fore his foot- stool|hum- bly bow,|And pour out fer- vent|prayer,|and pour out fer- vent|prayer, and|
w: hill; And|thi- ther set your|stea- dy face,|With a de- ter- min’d|will,|with a de- ter- min’d|will, with|
w: join; And|spread the sen- ti-|ments you feel|Of faith and love di-|vine,|of faith and love di-|vine, of|
 (d2 e2) (f2 e2) | d4 c4 | d8 |] %19
w: pour _ out _|fer- vent|prayer.|
w: a _ de- *|ter- min’d|will.|
w: faith _ and _|love di-|vine.|
V:2
 D2 | D4 F4 | (E2 C2) D4 | D4 C4 | D4 z2 D2 | G3 G G2 G2 | F4 z2 F2 | A4 F4 | E6 D2 | %9
w: Come,|let us|to _ his|tem- ple|haste, And|seek his fa- vour|there, and|seek his|fa- vour|
w: En-|quire, ye|pil- * grims,|for the|way That|leads to Zi- on’s|hill, that|leads to|Zi- on’s|
w: In-|vite the|stran- * gers|all a-|round Your|pi- ous march to|join, your|pi- ous|march to|
 !fermata!C6 D2 | D2 D2 D2 G2 | F2 E2 D4 | B,2 B,C D2 E2 | F4 z4 | C2 CD E2 F2 | G4 z2 G2 | %16
w: there, Be-|fore his foot- stool|hum- bly bow,|And pour out fer- vent|prayer,|and pour out fer- vent|prayer, and|
w: hill; And|thi- ther set your|stea- dy face,|With a de- ter- min’d|will,|with a de- ter- min’d|will, with|
w: join; And|spread the sen- ti-|ments you feel|Of faith and love di-|vine,|of faith and love di-|vine, of|
 (F2 A2) (A2 G2) | F4 E4 | F8 |] %19
w: pour _ out _|fer- vent|prayer.|
w: a _ de- *|ter- min’d|will.|
w: faith _ and _|love di-|vine.|
V:3
 F2 | A4 A4 | G4 (F2 E2) | F4 E4 | D4 z2 d2 | d3 d d2 e2 | f4 z2 d2 | d4 A4 | A4 ^G4 | %9
w: Come,|let us|to his _|tem- ple|haste, And|seek his fa- vour|there, and|seek his|fa- vour|
w: En-|quire, ye|pil- grims, _|for the|way That|leads to Zi- on’s|hill, that|leads to|Zi- on’s|
w: In-|vite the|stran- gers _|all a-|round Your|pi- ous march to|join, your|pi- ous|march to|
 !fermata!A6 F2 | G2 B2 d2 d2 | d2 c2 d4 | z8 | F2 F^G A2 B2 | c4 z4 | G2 GA B2 c2 | d2 A2 d2 B2 | %17
w: there, Be-|fore his foot- stool|hum- bly bow,||And pour out fer- vent|prayer,|and pour out fer- vent|prayer, and pour out|
w: hill; And|thi- ther set your|stea- dy face,||With a de- ter- min’d|will,|with a de- ter- min’d|will, with a de-|
w: join; And|spread the sen- ti-|ments you feel||Of faith and love di-|vine,|of faith and love di-|vine, of faith and|
 A4 A4 | A8 |] %19
w: fer- vent|prayer.|
w: ter- min’d|will.|
w: love di-|vine.|
V:4
 D,2 |"^6" F,4 D,4 |"^6""^-5" E,4"^6" (F,2"^65" G,2) |"^64" A,4"^75" A,,4 | D,4 z2"^6" F,2 | %5
w: Come,|let us|to his _|tem- ple|haste, And|
w: En-|quire, ye|pil- grims, _|for the|way That|
w: In-|vite the|stran- gers _|all a-|round Your|
 G,3 A,"^6" B,2"^7" C2 | D4 z2 D,2 |"^6" F,4 D,4 |"^64" E,4"^8#""^7" E,4 | !fermata!A,,6 D,2 | %10
w: seek his fa- vour|there, and|seek his|fa- vour|there, Be-|
w: leads to Zi- on’s|hill, that|leads to|Zi- on’s|hill; And|
w: pi- ous march to|join, your|pi- ous|march to|join; And|
 G,2 G,2"^6" B,2 G,2 |"^64" A,2"^53" A,,2 D,4 | z8 | D,2"^3ds" D,E, F,2 ^G,2 | %14
w: fore his foot- stool|hum- bly bow,||And pour out fer- vent|
w: thi- ther set your|stea- dy face,||With a de- ter- min’d|
w: spread the sen- ti-|ments you feel||Of faith and love di-|
"^Notes: The order of parts in the source is Tenor - [Alto] - Air - [Bass], with both the Tenor and Alto parts printed inthe treble clef an octave above sounding pitch. Only the first verse of the text is underlaid in the source: threesubsequent verses have been added editorially." A,4 z4 | %15
w: prayer,|
w: will,|
w: vine,|
 E,2"^3ds" E,F, G,2"^7" A,2 | B,2"^6" C2 D2"^6" G,2 |"^64" A,4"^53" A,,4 | D,8 |] %19
w: and pour out fer- vent|prayer, and pour out|fer- vent|prayer.|
w: with a de- ter- min’d|will, with a de-|ter- min’d|will.|
w: of faith and love di-|vine, of faith and|love di-|vine.|

